!!!COM:	Josquin des Pres
**kern	**kern
*part2	*part1
*staff2	*staff1
*clefGv2	*clefGv2
*k[]	*k[]
*M2/1	*M2/1
=1-	=1-
0r	1.e
.	4d
.	4c
=2	=2
1.d	1B
.	1d
4c	.
4B	.
=3	=3
1A	1c
1c	1A
=4	=4
1B	2r
.	2d
1G	2e
.	2d
=5	=5
2r	2.c
2c	.
.	4A
2d	2B
2c	2A
=6	=6
2.B	2r
.	2d
4G	.
2A	2c
2G	2B
=7	=7
2r	1e
2c	.
2B	2d
2A	2c
=8	=8
1d	1B
2c	2A
2B	[2d
=9	=9
1A	2d]
.	2c
2G	1e
[2c	.
=10	=10
2c]	1.d
2B	.
1d	.
.	4c
.	4B
=11	=11
1.c	1A
.	2r
4B	2A
4A	.
=12	=12
1G	2B
.	2.d
2r	.
.	4c
2G	4d
.	4B
=13	=13
2A	2c
2.c	2.e
4B	4d
4c	4e
4A	4c
=14	=14
2B	2d
2.d	2B
.	2.d
4c	.
4d	.
4B	4c
=15	=15
2c	1A
2A	.
2.c	2r
.	[2c
4B	.
=16	=16
1G	2c]
.	2B
2r	1d
[2B	.
=17	=17
2B]	1.c
2A	.
1c	.
.	4B
.	4A
=18	=18
0B	0G
==	==
*-	*-
